X:1
T:His Dark Materials Theme
T:His Dark Materials Theme
T:Lorne Balfe Arr. George Robertson 
%%score { ( 1 4 ) | ( 2 3 ) }
L:1/8
Q:1/4=86
M:4/4
K:Eb
V:1 treble nm="Piano" snm="Pno."
V:4 treble 
V:2 bass 
V:3 bass 
V:1
!pp!!<(! z/ G/c/G/ e/G/c/G/ z/ G/c/G/ e/G/c/G/ | z/ G/c/G/ e/G/c/G/ z/ G/c/G/ e/G/c/G/ | %2
 z/ G/c/G/ e/G/c/G/ z/ G/c/G/ e/G/c/G/ | z/ G/c/G/ e/G/c/G/ z/ G/c/G/ e/G/c/G/!<)! | %4
!mp! G<E A>G F4 | E<F DE/D/ C4 | G<E G>B c4 |!<(! B<c e>d c4!<)! |!mf! G<E A>G F4 | E<F DE/D/ C4 | %10
 G<E G>B c4 |!<(! B<c e>d c2 (3ED_D!<)! |!f! e2 d2 e3 f | d2 c2 d2 e2 | g2 f2 g3 a | f2 e2 f2 _g2 | %16
 e2 _d2 e3 f |!<(! [EGBe]3 f/e/ [G=Bd]2 D/F/G/B/!<)! |!ff! g<e a>g [cef]4 | e<f de/d/ [Gc]4 | %20
 g<e g>b [eac']4 | [Bb]<[cc'] [ee']>[dd'] [ceac']4 | [Gg]<[Ee] [Aa]>[Gg] F2 x2 | %23
 [Ee]<[Ff] [Dd][Ee]/[Dd]/ [CEGc]4 | [Gg]<[Ee] [Gg]>[Bb] [ceac']4 | %25
 [Bb]<[cc']- [cc']2 [ee']3 [dd'] | [eac']4 (3[=B,=B][Cc][Dd] (3[Ee][Ff][Gg] |!>(! [cc']4 x4 | %28
 G<F A>G [CF]4 | G<E A>G [A,F]4 | G<E A>G x2!8vb(! (3E,D,_D,!>)! |!pp! C,8!8vb)! |] %32
V:2
!ped! C4 C4 |!ped! C4!ped-up! C4 |!ped! C4!ped-up! C4 |!ped! C4!ped-up! C4 | %4
!ped! C,/!ped-up!G,/C/G,/ E/G,/C/G,/ C,/G,/C/G,/ E/G,/C/G,/ | %5
!ped! A,,/!ped-up!E,/A,/!ped!E,/!ped-up! F,,/C,/A,/F,/ [C,,C,]2!ped! (3[E,,E,]!ped-up![D,,D,][C,,C,] | %6
!ped! [C,,C,]/!ped-up!G,/C/G,/ E/G,/C/G,/ A,,/E,/A,/E,/ C/E,/A,/E,/ | %7
!ped! F,,/!ped-up!C,/A,/C,/ G,,/D,/=B,/D,/ A,,/E,/C/!ped!E,/!ped-up! (3[=B,,,=B,,][C,,C,][D,,D,] | %8
!ped! [C,,C,]/!ped-up!G,,/C,/G,,/ E,/G,,/C,/!ped!G,,/!ped-up! E,,/B,,/E,/B,,/ G,/B,,/E,/!ped!B,,/!ped-up! | %9
 A,,/E,/A,/!ped!E,/!ped-up! F,,/C,/A,/F,/ [C,,C,]2!ped! (3[E,,E,]!ped-up![D,,D,][C,,C,] | %10
!ped! [C,,C,]/!ped-up!G,/C/G,/ E/G,/C/G,/!ped! A,,/!ped-up!E,/A,/E,/ C/E,/A,/E,/ | %11
!ped! F,,/!ped-up!C,/A,/C,/!ped! G,,/!ped-up!D,/=B,/D,/ C,,/G,,/E,/G,,/!ped! (3[E,,E,]!ped-up![D,,D,][_D,,_D,] | %12
!ped! C,,/!ped-up!C,/E,/G,/ C/G,/E,/C,/!ped! G,,/!ped-up!E,/G,/B,/ E/B,/G,/E,/ | %13
!ped! B,,/!ped-up!F,/B,/D/ F/D/B,/F,/!ped! F,,/!ped-up!C,/F,/A,/ C/A,/F,/C,/ | %14
!ped! E,,/!ped-up!B,,/G,/B,/ E/B,/G,/E,/!ped! =B,,/!ped-up!D,/G,/=B,/ D/B,/D,/G,,/ | %15
!ped! _D,,/!ped-up!A,,/F,/A,/ _D/A,/F,/_D,/!ped! A,,/!ped-up!E,/A,/_C/ E/C/A,/E,/ | %16
!ped! _C,/!ped-up!E,/_G,/_C/ E/C/G,/E,/!ped! A,,/!ped-up!E,/A,/C/ E/C/A,/E,/ | %17
!ped! G,,/!ped-up!E,/G,/B,/ E/B,/G,/E,/!ped! G,,/!ped-up!D,/G,/=B,/ [F,,F,]/[E,,E,]/[D,,D,] | %18
!ped! C,,/!ped-up!G,,/C,/G,,/ E,/G,,/C,/G,,/!ped! C,,/!ped-up!G,,/C,/G,,/ E,/G,,/C,/G,,/ | %19
!ped! A,,/!ped-up!E,/C/E,/ F,,/C,/A,/C,/!ped! C,,/!ped-up!G,,/E,/G,,/ (3[E,,E,][D,,D,][_D,,_D,] | %20
!ped! C,,/!ped-up!G,,/C,/G,,/ E,/G,,/C,/G,,/!ped! A,,/!ped-up!E,/A,/E,/ C/E,/A,/E,/ | %21
!ped! F,,/!ped-up!C,/A,/C,/ G,,/D,/=B,/D,/!ped! A,,/!ped-up!E,/C/E,/ (3[=B,,,=B,,][C,,C,][D,,D,] | %22
!ped! C,,/!ped-up!G,,/C,/G,,/ E,/G,,/C,/G,,/!ped! E,,/!ped-up!B,,/E,/B,,/ G,/B,,/E,/B,,/ | %23
!ped! A,,/!ped-up!E,/C/E,/ F,,/C,/A,/C,/!ped! C,,/!ped-up!G,,/E,/G,,/ (3[E,,E,][D,,D,][_D,,_D,] | %24
!ped! C,,/!ped-up!G,,/C,/G,,/ E,/G,,/C,/G,,/!ped! A,,/!ped-up!E,/A,/E,/ C/E,/A,/E,/ | %25
!ped! F,,/!ped-up!C,/F,/C,/ G,/C,/A,/C,/!ped! G,,/!ped-up!D,/G,/D,/ =A,/D,/=B,/D,/ | %26
!ped! A,,/!ped-up!E,/A,/E,/ B,/E,/C/E,/!ped! (3[D,,D,]!ped-up![E,,E,][F,,F,] (3[=B,,,=B,,][C,,C,][D,,D,] | %27
!ped! C,,/!ped-up!G,,/C,/G,,/ E,/G,,/C,/G,,/!ped! C,,/!ped-up!A,,/C,/A,,/ F,/A,,/C,/A,,/ | %28
!ped! C,,/!ped-up!G,,/C,/G,,/ =E,/G,,/C,/G,,/!ped! C,,/!ped-up!A,,/C,/A,,/ (3[E,,_E,][D,,D,][_D,,_D,] | %29
!ped! C,,/!ped-up!G,,/C,/G,,/ F,/G,,/C,/G,,/!ped! C,,/!ped-up!A,,/C,/A,,/ F,/A,,/C,/A,,/ | %30
!ped! C,,/!ped-up!G,,/C,/G,,/ E,/G,,/C,/G,,/!ped! C,,/!ped-up!A,,/C,/A,,/!8vb(!!ped! (3[E,,,E,,]!ped-up![D,,,D,,][_D,,,_D,,] | %31
!ped! [C,,,C,,]8!8vb)!!ped-up! |] %32
V:3
 x8 | x8 | G,<E, A,>G, F,4 | G,<E, A,>G, F,4 | x8 | x8 | x8 | x8 | x8 | x8 | x8 | x8 | x8 | x8 | %14
 x8 | x8 | x8 | x8 | x8 | x8 | x8 | x8 | x8 | x8 | x8 | x8 | x8 | x8 | x8 | x8 | x6!8vb(! x2 | %31
 x8!8vb)! |] %32
V:4
 x8 | x8 | x8 | x8 | x8 | x4 x/ G,/C/G,/ E/G,/C/G,/ | x8 | z4 z2 (3=B,CD | x8 | %9
 x4 x/ G,/C/G,/ E/G,/C/G,/ | x8 | x8 | [Gc]4 [GB]4 | [FB]4 [FA]4 | [Be]4 [=Bd]4 | [A_d]4 [A_c]4 | %16
 [_G_c]4 [FAc]4 | x8 | [Gc]4 x4 | [Ac]2 [FA]2 x2 (3ED_D | [Gc]4 x4 | [fa]2 [g=b]2 z2 (3=Bcd | %22
 c4 [Bef]4 | [Ac]2 [Ac]2 x4 | c4 x4 | [fa]4 [g=b]2 =B2 | d2 c2 x4 | z2 A>G [A,F]4 | C4 x4 | C4 z4 | %30
 C4 [CF]4!8vb(! | x8!8vb)! |] %32

